svgs/AzAppServiceMobileApp.svg

<?xml version="1.0" encoding="utf-8"?>
<!-- Generator: Adobe Illustrator 18.1.0, SVG Export Plug-In . SVG Version: 6.00 Build 0)  -->
<!DOCTYPE svg PUBLIC "-//W3C//DTD SVG 1.0//EN" "http://www.w3.org/TR/2001/REC-SVG-20010904/DTD/svg10.dtd">
<svg version="1.0" xmlns="http://www.w3.org/2000/svg" xmlns:xlink="http://www.w3.org/1999/xlink" x="0px" y="0px"
	 viewBox="0 0 152 117.5" enable-background="new 0 0 152 117.5" xml:space="preserve">
<g id="Layer_1">
	<g id="Azure">
	</g>
	<g id="BizTalk_Services" transform="translate(37.3575,-2500.2)">
	</g>
	<g id="Key_Vault">
	</g>
	<g id="Mobile_Engagement">
	</g>
</g>
<g id="paths">
	<g id="Access_control">
	</g>
	<g id="Azure_active_directory">
	</g>
	<g id="API_Management">
	</g>
	<g id="Azure_automation">
	</g>
	<g id="Azure_SQL_database">
	</g>
	<g id="Azure_subscription">
	</g>
	<g id="Backup_service">
	</g>
	<g id="Bitbucket_code_source">
	</g>
	<g id="Azure_cache">
	</g>
	<g id="Content_delivery_network__x28_CDN_x29_">
	</g>
	<g id="Cloud_service">
	</g>
	<g id="CodePlex">
	</g>
	<g id="Dropbox_code_source">
	</g>
	<g id="Express_route">
	</g>
	<g id="Git_repository">
	</g>
	<g id="GitHub_code">
	</g>
	<g id="HD_Insight">
	</g>
	<g id="Health_monitoring">
	</g>
	<g id="Healthy">
	</g>
	<g id="BizTalk_hybrid_connection">
	</g>
	<g id="Hybrid_connection_manager_for_BizTalk_hybrid_connection">
	</g>
	<g id="Hyper-V_recovery_manager">
	</g>
	<g id="Machine_learning">
	</g>
	<g id="Media_services">
	</g>
	<g id="Microsoft_account">
	</g>
	<g id="Mobile_services">
		<g>
			<g>
				<g>
					<path fill="#0078D7" d="M87.3,36.4h-0.8H65.1h-0.4c-2,0.1-2,0.5-2,2.9l0,38.8c0,2.4,0,2.8,2,2.9c0,0,0.6,0,0.7,0h21.3
						c0.1,0,0.7,0,0.7,0c2-0.1,2-0.5,2-2.9l0-38.8C89.3,37,89.3,36.5,87.3,36.4z M72.9,37.9l6.3,0c0.1,0,0.2,0.1,0.2,0.2
						c0,0.1-0.1,0.2-0.2,0.2l-6.3,0c-0.1,0-0.2-0.1-0.2-0.2C72.7,38.1,72.7,37.9,72.9,37.9z M73,78.7h-1.5c-0.3,0-0.5-0.1-0.5-0.4
						c0-0.3,0.2-0.4,0.5-0.4l1.5,0c0.3,0,0.5,0.1,0.5,0.4C73.5,78.6,73.3,78.7,73,78.7z M77.1,79H75c-0.3,0-0.6-0.1-0.6-0.5
						c0-0.3,0.3-0.5,0.6-0.5l2.1,0c0.3,0,0.6,0.1,0.6,0.5C77.7,78.8,77.4,79,77.1,79z M80.5,78.7H79c-0.3,0-0.5-0.1-0.5-0.3
						c0-0.3,0.2-0.3,0.5-0.3h1.5c0.3,0,0.5,0.1,0.5,0.3C81,78.6,80.8,78.7,80.5,78.7z M87.4,74.2c0,2-0.2,2.5-2.1,2.5l-10.3,0
						l-8.3,0c-1.9,0-2.1-0.5-2.1-2.5l0-32.2c0-2.1,0.2-2.1,2.3-2.1l8.1,0l10.1,0c2.1,0,2.4,0,2.4,2.1L87.4,74.2z"/>
				</g>
			</g>
			<g>
				<path fill="#0078D7" d="M86.1,43.3c0-2.1-0.3-2.1-2.3-2.1l-15.6,0c-2.1,0-2.3,0-2.3,2.1l0,29.6c0,2.1,0.2,2.4,2.3,2.4l15.6,0
					c2.1,0,2.3-0.4,2.3-2.4L86.1,43.3z M75.4,65.1L69,61.4V54l6.4,3.7V65.1z M69.6,52.9l6.4-3.7l6.4,3.7L76,56.7L69.6,52.9z
					 M83,61.4l-6.4,3.7v-7.4L83,54V61.4z"/>
			</g>
		</g>
	</g>
</g>
</svg>

<?xml version="1.0" encoding="UTF-8" standalone="no"?>
<!-- Generator: Adobe Illustrator 18.1.0, SVG Export Plug-In . SVG Version: 6.00 Build 0)  -->

<svg
   xmlns:dc="http://purl.org/dc/elements/1.1/"
   xmlns:cc="http://creativecommons.org/ns#"
   xmlns:rdf="http://www.w3.org/1999/02/22-rdf-syntax-ns#"
   xmlns:svg="http://www.w3.org/2000/svg"
   xmlns="http://www.w3.org/2000/svg"
   xmlns:sodipodi="http://sodipodi.sourceforge.net/DTD/sodipodi-0.dtd"
   xmlns:inkscape="http://www.inkscape.org/namespaces/inkscape"
   version="1.0"
   x="0px"
   y="0px"
   viewBox="0 0 26.700001 44.599998"
   enable-background="new 0 0 152 117.5"
   xml:space="preserve"
   id="svg46"
   sodipodi:docname="AzAppServiceMobileApp.svg"
   width="26.700001"
   height="44.599998"
   inkscape:version="0.92.4 (5da689c313, 2019-01-14)"><metadata
   id="metadata52"><rdf:RDF><cc:Work
       rdf:about=""><dc:format>image/svg+xml</dc:format><dc:type
         rdf:resource="http://purl.org/dc/dcmitype/StillImage" /></cc:Work></rdf:RDF></metadata><defs
   id="defs50" /><sodipodi:namedview
   pagecolor="#ffffff"
   bordercolor="#666666"
   borderopacity="1"
   objecttolerance="10"
   gridtolerance="10"
   guidetolerance="10"
   inkscape:pageopacity="0"
   inkscape:pageshadow="2"
   inkscape:window-width="713"
   inkscape:window-height="543"
   id="namedview48"
   showgrid="false"
   inkscape:zoom="2.0085106"
   inkscape:cx="13.3"
   inkscape:cy="22.25"
   inkscape:window-x="0"
   inkscape:window-y="0"
   inkscape:window-maximized="0"
   inkscape:current-layer="svg46" />
<g
   id="Layer_1"
   transform="translate(-62.7,-36.4)">
	<g
   id="Azure">
	</g>
	<g
   id="BizTalk_Services"
   transform="translate(37.3575,-2500.2)">
	</g>
	<g
   id="Key_Vault">
	</g>
	<g
   id="Mobile_Engagement">
	</g>
</g>
<g
   id="paths"
   transform="translate(-62.7,-36.4)">
	<g
   id="Access_control">
	</g>
	<g
   id="Azure_active_directory">
	</g>
	<g
   id="API_Management">
	</g>
	<g
   id="Azure_automation">
	</g>
	<g
   id="Azure_SQL_database">
	</g>
	<g
   id="Azure_subscription">
	</g>
	<g
   id="Backup_service">
	</g>
	<g
   id="Bitbucket_code_source">
	</g>
	<g
   id="Azure_cache">
	</g>
	<g
   id="Content_delivery_network__x28_CDN_x29_">
	</g>
	<g
   id="Cloud_service">
	</g>
	<g
   id="CodePlex">
	</g>
	<g
   id="Dropbox_code_source">
	</g>
	<g
   id="Express_route">
	</g>
	<g
   id="Git_repository">
	</g>
	<g
   id="GitHub_code">
	</g>
	<g
   id="HD_Insight">
	</g>
	<g
   id="Health_monitoring">
	</g>
	<g
   id="Healthy">
	</g>
	<g
   id="BizTalk_hybrid_connection">
	</g>
	<g
   id="Hybrid_connection_manager_for_BizTalk_hybrid_connection">
	</g>
	<g
   id="Hyper-V_recovery_manager">
	</g>
	<g
   id="Machine_learning">
	</g>
	<g
   id="Media_services">
	</g>
	<g
   id="Microsoft_account">
	</g>
	<g
   id="Mobile_services">
		<g
   id="g42">
			<g
   id="g36">
				<g
   id="g34">
					<path
   d="M 87.3,36.4 H 86.5 65.1 64.7 c -2,0.1 -2,0.5 -2,2.9 v 38.8 c 0,2.4 0,2.8 2,2.9 0,0 0.6,0 0.7,0 h 21.3 c 0.1,0 0.7,0 0.7,0 2,-0.1 2,-0.5 2,-2.9 V 39.3 C 89.3,37 89.3,36.5 87.3,36.4 Z m -14.4,1.5 h 6.3 c 0.1,0 0.2,0.1 0.2,0.2 0,0.1 -0.1,0.2 -0.2,0.2 h -6.3 c -0.1,0 -0.2,-0.1 -0.2,-0.2 0,0 0,-0.2 0.2,-0.2 z M 73,78.7 H 71.5 C 71.2,78.7 71,78.6 71,78.3 71,78 71.2,77.9 71.5,77.9 H 73 c 0.3,0 0.5,0.1 0.5,0.4 0,0.3 -0.2,0.4 -0.5,0.4 z M 77.1,79 H 75 c -0.3,0 -0.6,-0.1 -0.6,-0.5 0,-0.3 0.3,-0.5 0.6,-0.5 h 2.1 c 0.3,0 0.6,0.1 0.6,0.5 0,0.3 -0.3,0.5 -0.6,0.5 z m 3.4,-0.3 H 79 c -0.3,0 -0.5,-0.1 -0.5,-0.3 0,-0.3 0.2,-0.3 0.5,-0.3 h 1.5 c 0.3,0 0.5,0.1 0.5,0.3 0,0.2 -0.2,0.3 -0.5,0.3 z m 6.9,-4.5 c 0,2 -0.2,2.5 -2.1,2.5 H 75 66.7 c -1.9,0 -2.1,-0.5 -2.1,-2.5 V 42 c 0,-2.1 0.2,-2.1 2.3,-2.1 H 75 85.1 c 2.1,0 2.4,0 2.4,2.1 z"
   id="path32"
   inkscape:connector-curvature="0"
   style="fill:#0078d7" />
				</g>
			</g>
			<g
   id="g40">
				<path
   d="m 86.1,43.3 c 0,-2.1 -0.3,-2.1 -2.3,-2.1 H 68.2 c -2.1,0 -2.3,0 -2.3,2.1 v 29.6 c 0,2.1 0.2,2.4 2.3,2.4 h 15.6 c 2.1,0 2.3,-0.4 2.3,-2.4 z M 75.4,65.1 69,61.4 V 54 l 6.4,3.7 z M 69.6,52.9 76,49.2 82.4,52.9 76,56.7 Z M 83,61.4 76.6,65.1 V 57.7 L 83,54 Z"
   id="path38"
   inkscape:connector-curvature="0"
   style="fill:#0078d7" />
			</g>
		</g>
	</g>
</g>
</svg>
